icon-svg/garage-alt-shut.svg

<svg xmlns="http://www.w3.org/2000/svg" fill="#44739e" viewBox="0 0 24 24"><path d="M12.117 3.534 1.967 8.095h1.057v11.234h.865V9.285h16.375v10.044h.865V8.095h.838zm6.345 6.081h1.515v9.714h-1.515zm-1.798 0h1.515v9.714h-1.515zm-1.758 0h1.515v9.714h-1.515zm-1.758 0h1.515v9.714h-1.515zm-1.788 0h1.515v9.714H11.36Zm-1.789 0h1.515v9.714H9.571Zm-1.818 0h1.515v9.714H7.753zm-1.758 0H7.51v9.714H5.995zm-1.819 0h1.515v9.714H4.176z"/></svg>

<?xml version="1.0" encoding="UTF-8"?>
<svg width="24px" fill="#44739e" height="24px" viewBox="0 0 24 24" version="1.1" xmlns="http://www.w3.org/2000/svg" xmlns:xlink="http://www.w3.org/1999/xlink">
            <path d="M 12.117,3.534 1.967,8.095 H 3.024 V 19.329 H 3.889 V 9.285 h 16.375 v 10.044 h 0.865 V 8.095 h 0.838 z m 6.345,6.0809998 h 1.515 V 19.329 h -1.515 z m -1.798,0 h 1.515 V 19.329 h -1.515 z m -1.758,0 h 1.515 V 19.329 h -1.515 z m -1.758,0 h 1.515 V 19.329 h -1.515 z m -1.788,0 h 1.515 V 19.329 H 11.36 Z m -1.7889999,0 H 11.086 V 19.329 H 9.5710001 Z m -1.8180003,0 h 1.515 V 19.329 h -1.515 z m -1.7579999,0 h 1.515 V 19.329 h -1.515 z m -1.8189998,0 h 1.515 V 19.329 h -1.515 z"/>

</svg>
